src/assets/filled/FingerCricle.svg

<svg width="24" height="24" viewBox="0 0 24 24"  xmlns="http://www.w3.org/2000/svg">
<path d="M12 7.9502C10.21 7.9502 8.75 9.4102 8.75 11.2002V12.8002C8.75 14.5902 10.21 16.0502 12 16.0502C13.79 16.0502 15.25 14.5902 15.25 12.8002V11.2002C15.25 9.4102 13.79 7.9502 12 7.9502ZM12.9 13.2402C12.9 13.7402 12.5 14.1402 12 14.1402C11.5 14.1402 11.1 13.7402 11.1 13.2402V10.7702C11.1 10.2802 11.5 9.8702 12 9.8702C12.5 9.8702 12.9 10.2702 12.9 10.7702V13.2402Z" />
<path d="M12 2C6.48 2 2 6.48 2 12C2 17.52 6.48 22 12 22C17.52 22 22 17.52 22 12C22 6.48 17.52 2 12 2ZM16.75 12.8C16.75 15.42 14.62 17.55 12 17.55C9.38 17.55 7.25 15.42 7.25 12.8V11.2C7.25 8.58 9.38 6.45 12 6.45C14.62 6.45 16.75 8.58 16.75 11.2V12.8Z" />
</svg>

<?xml version="1.0" encoding="UTF-8"?>
<svg width="24" height="24" viewBox="0 0 24 24" xmlns="http://www.w3.org/2000/svg">
 <path d="m12 7.9502c-1.79 0-3.25 1.46-3.25 3.25v1.6c0 1.79 1.46 3.25 3.25 3.25s3.25-1.46 3.25-3.25v-1.6c0-1.79-1.46-3.25-3.25-3.25zm0.9 5.29c0 0.5-0.4 0.9-0.9 0.9s-0.9-0.4-0.9-0.9v-2.47c0-0.49 0.4-0.9 0.9-0.9s0.9 0.4 0.9 0.9v2.47z"/>
 <path d="m12 2c-5.52 0-10 4.48-10 10s4.48 10 10 10 10-4.48 10-10-4.48-10-10-10zm4.75 10.8c0 2.62-2.13 4.75-4.75 4.75s-4.75-2.13-4.75-4.75v-1.6c0-2.62 2.13-4.75 4.75-4.75s4.75 2.13 4.75 4.75v1.6z"/>
</svg>
